!!!COM: Charles Gounod
!!!CNT: Francais
!!!TXO: Francais
!!!OTL: Les Champs
!!!LYR: Pierre Jean de Be/ranger
!!!ENC: Jacob Pegg
!!!YOR: Romantic French Song 1830-1870 -David Tunley, ed.,
!!!YOR: New York: Garland Publishing, Inc., 1995, Vol. 5
!!!ODT: 1863/
!!NB: Vocal melody and text only encoded.
!!NB: First instance of melodic material only encoded.
**kern	**silbe
*clef G2	*
*k[f#c#g#]	*
*M2/4	*
*MM[allegretto]	*
!!created: 6/16/03 21:31
!!proofed and posted: 7/21/03 23:15
!!edit time: 20 min.
=11	=11
{4cc#	{Ro-
8b	-se
8a	par-
=12	=12
8cc#	-tons,
8cc#	voi-
8ee	-ci
8cc#	l'au-
=13	=13
4cc#	-ro-
4b}	-re:}
=14	=14
8r	.
{8b	{Qui-
8b	-te
8dd	des
=15	=15
8cc#	o-
8b	-reil-
8e	-lers
8b	si
=16	=16
[4cc#	doux!
8cc#]}	|}
8r	.
=17	=17
2r	.
!!18-23 modified (from prior phrase) only in syllabification
=25	=25
{8ee	{Cher-
8b	-chons,
8b	loin
8cc#	du
=26	=26
4dd	bruit
8cc#	de
8b	la
=27	=27
4dd	vil-
4cc#}	-le,}
=28	=28
8r	.
{8cc#	{Pour
8b	le
8ff#	bon-
=29	=29
8ee	-heur
8cc#	un
8ee	su^r
8dd	a-
=30	=30
(4cc#	-si-
16ddq	|
16cc#q)	|
8b}	-le.}
8r	.
=31	=31
2r	.
=32	=32
{8cc#	{Viens
8b	aux
8a	champs
8ee	cou-
=33	=33
4ee	-ler
8b	d'heu-
8dd	-reux
=34	=34
4cc#}	jours;}
4r	.
=35	=35
{[2ee	{Viens!
=36	=36
8ee]	|
8cc#	les
[4ee	champs
=37	=37
8ee]	|
8cc#	les
[4ee	champs
=38	=38
8ee]	|
8ee	ont
8ff#	aus-
8ee	-si
=39	=39
4ee	leurs
(16bq	a-
16cc#q	|
4b)	|
=40	=40
[4a	-mours!
8a]}	|}
8r	.
*-	*-
